dist/img/svg/like-ico.svg

<svg width="28" height="26" viewBox="0 0 28 26" fill="none" xmlns="http://www.w3.org/2000/svg">
<path d="M19.4061 3.1518C22.6868 3.1518 25.359 5.79975 25.359 9.05068C25.359 10.7548 24.8034 12.2885 23.5202 14.1893C21.9989 16.4177 18.8638 19.0263 18.8373 19.0526L13.8105 23.1818L8.7837 19.0657C7.91062 18.3447 5.35753 16.0638 4.10082 14.2024C2.80443 12.2885 2.24884 10.7548 2.24884 9.05068C2.24884 5.79975 4.92099 3.1518 8.20164 3.1518C9.72292 3.1518 11.1648 3.71547 12.2628 4.73795L13.7973 6.16679L15.3318 4.73795C16.443 3.71547 17.8849 3.1518 19.4061 3.1518ZM19.4061 0.92334C17.2367 0.92334 15.2656 1.74918 13.8105 3.11248C12.3422 1.76229 10.3711 0.92334 8.20164 0.92334C3.67751 0.92334 0 4.56753 0 9.05068C0 11.5151 0.93922 13.5338 2.22238 15.4346C3.94208 17.9645 7.34179 20.7698 7.34179 20.7698L12.6067 25.0825C12.9507 25.3709 13.374 25.5151 13.7973 25.5151C14.2206 25.5151 14.6439 25.3709 14.9878 25.0825L20.2528 20.7698C20.2528 20.7698 23.6525 17.9776 25.3722 15.4346C26.6553 13.5338 27.5946 11.5282 27.5946 9.05068C27.6078 4.56753 23.9303 0.92334 19.4061 0.92334Z" fill="#3F3F41"/>
</svg>

<svg width="28" height="26" viewBox="0 0 28 26" fill="none" xmlns="http://www.w3.org/2000/svg"><path d="M19.406 3.152c3.28 0 5.953 2.648 5.953 5.899 0 1.704-.556 3.238-1.839 5.138-1.521 2.229-4.656 4.837-4.683 4.864l-5.027 4.129-5.026-4.116c-.873-.721-3.426-3.002-4.683-4.864-1.297-1.913-1.852-3.447-1.852-5.151 0-3.251 2.672-5.9 5.953-5.9a5.93 5.93 0 0 1 4.06 1.587l1.535 1.429 1.535-1.43a5.991 5.991 0 0 1 4.074-1.585zm0-2.229a8.15 8.15 0 0 0-5.595 2.19A8.269 8.269 0 0 0 8.2.922C3.679.923 0 4.568 0 9.051c0 2.464.94 4.483 2.222 6.384 1.72 2.53 5.12 5.335 5.12 5.335l5.265 4.313a1.85 1.85 0 0 0 2.38 0l5.266-4.313s3.4-2.792 5.12-5.335c1.282-1.901 2.222-3.907 2.222-6.384.013-4.483-3.665-8.128-8.189-8.128z" fill="#3F3F41"/></svg>
